X:1
T:The Last Call
T:The Last Call
T:James Monroe Hagan
T:Anonymous, 1849
T:Public Domain Courtesy of the Cyber Hymnal™
T:Public Domain Courtesy of the Cyber Hymnal™
C:James Monroe Hagan
Z:Public Domain
Z:Courtesy of the Cyber Hymnal™
%%score ( 1 2 ) 3
L:1/8
Q:1/4=95
M:3/4
K:F
V:1 treble 
V:2 treble 
V:3 bass 
V:1
 F>[EG] | [FA]2 [Af]2 (ed) | [Ac] [FA]3 (F>[EG]) | [FA]2 ([GB][FA]) [EG]2 | F4 (F>[EG]) | %5
w: 1.~’Tis the|last call of *|mer- cy, That *|lin- gers * for|thee; Oh! *|
w: 2.~If thou|slight- est this *|warn- ing, Now *|of- fered * at|last, Thine *|
w: 3.~’Tis the|last call of *|mer- cy, Oh, *|turn not * a-|way, For *|
w: 4.~’Tis the|last call of *|mer- cy, Oh, *|steel not * thy|heart, For *|
w: 5.~’Tis the|last call of *|mer- cy, That *|lin- gers * for|thee, Break~a- *|
 [FA]2 [Af]2 (ed) | [Ac] [FA]3 (F>[EG]) | [FA]2 ([GB][FA]) [EG]2 | F4 ([Ac][FA]) | %9
w: sin- ner, re- *|ceive it; To *|Je- sus * now|flee! He *|
w: will be~the sad *|mourn- ing— “The *|har- vest * is|past, Sal- *|
w: now swift- ly *|hast- eth The *|dread ven- * geance|day! The *|
w: now she is *|ris- ing, From *|earth to * de-|part! The *|
w: way from thy *|bond- age, Oh, *|sin- ner, * be|free! Be *|
 [Af]2 ([df][ce]) ([Bd][Ac]) | [Ac] [FA]3 ([Ac][FA]) | [Af]2 ([Af][Ge]) ([Fd][E^c]) | %12
w: oft- en * has *|called thee, But *|thou hast * re- *|
w: va- tion * I’ve *|slight- ed, The *|sum- mer * is *|
w: Spir- it * in- *|vites you, And *|pleads with * you, *|
w: Bride is * now *|call- ing— “Ye *|thirst- y * souls, *|
w: not a * sad *|mourn- er, “The *|har- vest * is *|
 [Fd]4 (F>[EG]) | [FA]2 [Af]2 (ed) | [Ac] [FA]3 (F>[EG]) | [FA]2 ([GB][FA]) [EG]2 | F4 |] %17
w: fused! His *|of- fered sal- *|va- tion And *|love are * a-|bused!|
w: o’er, And *|now there is *|par- don, Sweet *|par- don, * no|more.”|
w: come! Oh, *|come to life’s *|wa- ters, Nor *|thirst- ing- * ly|roam!|
w: come!” Oh, *|come with the *|ran- somed, In *|Hea- ven * there’s|room!|
w: past, The *|sum- mer is *|end- ed”— And *|per- ish * at|last.|
V:2
 F3/2 x/ | x4 B2 | x4 F3/2 x/ | x6 | F4 F3/2 x/ | x4 B2 | x4 F3/2 x/ | x6 | F4 x2 | x6 | x6 | x6 | %12
 x4 F3/2 x/ | x4 B2 | x4 F3/2 x/ | x6 | x4 |] %17
V:3
 F,>F, | F,2 F,2 C,2 | F, F,3 F,2 | F,2 [B,,B,]2 [B,,C]2 | F,4 F,2 | F,2 F,2 C,2 | F, F,3 F,2 | %7
 F,2 B,,2 C,2 | F,4 F,2 | F,2 F,2 B,,2 | F, F,3 F,2 | D,2 A,2 A,,2 | D,4 F,2 | F,2 F,2 C,2 | %14
 F, F,3 F,2 | F,2 B,,2 C,2 | F,4 |] %17

